X:1
T:Waldesmacht, No 3, from Sieben Lieder, Opus 62 - Recorder Quartet
T:Waldesmacht, No 3, from Sieben Lieder, Opus 62 - Recorder Quartet 
T:Johannes Brahms
C:Johannes Brahms
%%score [ 1 2 3 ( 4 5 ) ]
L:1/8
Q:1/4=80
M:4/4
K:D
V:1 treble+8 nm="S" snm="S"
V:2 treble nm="A" snm="A"
V:3 treble nm="T" snm="T"
V:4 bass+8 nm="B" snm="B"
V:5 bass+8 
V:1
 F2 A2 E3 F | G2 F2 E4 | E2 A4 B2 | c2 d2 A3 G | F3 z A2 A2 | A3 G G2 G2 | G3 =F F2 E2 | %7
 D3 D ^D2 D2 | E2 e4 e2 | e6 c2 | A6 =F2 | E3 z G3 G | G3 G ^F3 B | B4 E2 z2 | A3 A D3 G | G8 | %16
 z4 F2 A2 | E3 F G2 A2 | F3 F B2 d2 | d3 A A3 G | F2 =c4 A2 | F6 E2- | E2 D2 D4- | D4 C4 | D4 z4 |] %25
V:2
 d2 d2 c2 c2 | d2 d2 B4 | c2 z2 e2 f2 | e2 d2 d2 e2 | A3 z d2 =c2 | B2 B2 =c2 _B2 | A4 d2 =c2 | %7
 B2 b4 b2 | b3 b ^g2 g2 | a2 e2 (=g4- | g2 c2) (e2 d2) | c3 z e3 e | e3 e d3 d | d4 c2 z2 | %14
 c3 c B3 B | (B6 A2) | z4 d2 d2 | c3 =c B2 e2 | ^d3 d =d2 g2 | g3 f f3 e | ^d2 z2 z4 | z2 ^d4 e2 | %22
 c2 =d4 d2 | d4 A4 | A4 z4 |] %25
V:3
 A2 A2 A3 F | D2 A2 ^G4 | A2 z2 c2 d2 | A2 A2 B2 c2 | d3 z A2 A2 | B2 E2 G2 G2 | A2 D2 A2 A2 | %7
 A3 A A2 A2 | B4 d2 d2 | c2 c2 (e4- | e2 A2) (c2 d2) | A3 z z2 c2- | cc c3 c B2- | Be e4 A2 | %14
 z2 d4 G2 | c2 d2 e4 | z4 A2 A2 | c3 ^d e2 B2 | B3 B B2 G2 | B2 d2 c2 c2 | =c2 z2 z4 | z2 =c4 B2 | %22
 _B2 A2 ^G2 =B2 | A6 =G2 | F4 z4 |] %25
V:4
 D,2 F,,2 A,,2 A,,2 | B,,2 D,2 E,4 | A,,2 z2 A,3 A, | G,2 F,2 E,2 A,,2 | D,3 z F,2 A,2 | %5
 E,3 E, E,2 G,2 | D,3 D, D,2 E,2 | =F,2 F,2 ^F,2 F,2 | ^G,4 B,2 B,2 | A,4 A,,4 | =F,4 A,4 | %11
 A,3 z z2 A,2- | A,A, A,3 A, G,2- | G,G, G,4 F,2 | z2 F,4 E,2 | E,2 D,2 C,4 | z4 D,2 F,,2 | %17
 A,,2 A,,2 E,2 G,,2 | B,,2 B,,2 G,2 B,,2 | D,2 F,2 A,2 A,,2 | A,2 z2 z4 | z4 G,4 | F,8- | %23
 F,2 E,2 E,4 | D,4 z4 |] %25
V:5
 x8 | x8 | x8 | x8 | x8 | x8 | x8 | x8 | x8 | x8 | x4 =F,,4 | A,,3 x5 | x8 | x8 | x8 | x8 | x8 | %17
 x8 | x8 | x8 | x8 | x4 G,,4 | F,,4 B,,2 ^G,,2 | A,,4 A,,4 | x8 |] %25

